X: 31
T: Liza Jane [4]
M:2/4
L:1/8
S:Viola "Mom" Ruth - Pioneer Western Folk Tunes (1948)
Z:AK/Fiddler's Companion
K:G
{A^A}B>G A2|{A^A}B>G AG/A/|d d3 (B/c/|d3) (G/A/)|
{^A}B>G AG/A/|{^A}B>G A (E/F/)|G G3 (E/F/)|G4:|
|:g3 d/d/|e2d2|d/d/ d2 (B/c/|d3) (e/f/|g) g3 d/|e2d2|[G/B/][G/B/] [B,3G3]A|
[B,3G3] (3d/e/f/|g g3 d/|e2d2|d/d/ d2 (B/c/|d3) (e/f/|g) g2 d|e2d2|
[G/B/][G/B/] [B,2G2] A|[B,4G4]:|

%%sep 1 1 500
